X: 15264
T: Girl Who Broke My Heart, The
R: reel
M: 4/4
K: Gmixolydian
(dc)|BGFD EC~C2|DG{A}G^F GABc|defd cAGF|DE{G}FE F2 (dc)|
BGFD EC~C2|DG{A}G^F GABc|defd cAGF|DG{A}G^F G2||
D^F|G2 (Bd) gdBG|F2 (Ac) fcAF|G2 (BG) gdBd|"tr"cBcd cAFA|
G2 (Bd) gdBG|F2 (Ac) fcdB|GABd cAGF|DG{A}G^F G2||

